X: 1
T: Old Katoone
M: 4/4
L: 1/8
R: reel
K: Dmin
|:Ad2e dcdf|Ad2e dcAG|Ad2e dcde|fefd ABcA:|
|:AD2E FGAG|Ad2c ABGB|AD2E FGAG|Ad2c ABGB:|
